X:1
T:Eileen O Riordan's
R:slide
M:12/8
L:1/8
K:Dmix
|: A,2 D DED A,2 D DED| A2 D DED C2 A, B,2 G, | A,2 D DED A,2 D DED |1 ABA GFE D3 D2C :|2 BA GFE D3 D2 F|
|: A2 A ABA ~G2 G F2 G| A2 D DED C2 A, B,2 G, | A,2 D DED A,DD DED |1 ABA GFE D3 D2F :|2 ABA GFE D3 D2C |

